svgs/solid/drumstick-bite.svg

<svg xmlns="http://www.w3.org/2000/svg" viewBox="0 0 512 512"><!--! Font Awesome Pro 6.0.0-alpha3 by @fontawesome - https://fontawesome.com License - https://fontawesome.com/license (Commercial License) --><path d="M512 168.9c0 1.766-.0229 3.398-.0768 5.164c-16.91-9.132-35.51-13.76-53.96-13.76c-82.65 0-105.5 74.17-105.5 105.4c0 27.04 9.923 54.43 29.63 76.25c-19.52 6.629-39.99 9.997-60.62 9.997l-87.18 .0038l-40.59 40.49c-6.104 6.103-8.921 14.01-8.921 22.17c0 13.98 7.244 17.1 7.244 37.03C192.1 485.4 164.6 512 131.7 512c-15.63 0-31.11-6.055-42.72-17.8c-11.55-11.46-16.82-26.31-16.82-41.26c0-4.948 .575-9.903 1.695-14.75c-4.842 1.11-9.793 1.681-14.72 1.681c-42.15 0-59.13-36.64-59.13-59.5c0-33.43 27.15-60.34 60.39-60.34c18.97 0 22.97 7.219 36.96 7.219c8.159 0 16.04-2.811 22.14-8.914l40.57-40.47L160.1 191.1c0-63.1 27.79-107 63.17-142.4c33.13-33.06 76.39-49.59 119.7-49.59s86.79 16.53 119.9 49.59C495.9 82.5 512 125.7 512 168.9z"/></svg>

<svg xmlns="http://www.w3.org/2000/svg" viewBox="0 0 512 512"><!-- Font Awesome Pro 6.0.0-alpha2 by @fontawesome - https://fontawesome.com License - https://fontawesome.com/license (Commercial License) --><path d="M512 168.786C512 170.553 511.973 172.319 511.919 174.086C495.014 164.954 476.398 160.343 457.945 160.343C375.295 160.343 352.464 234.506 352.464 265.712C352.464 292.754 362.433 320.136 382.142 341.953C362.618 348.582 342.009 351.956 321.38 351.956C321.005 351.956 320.63 351.955 320.255 351.953H234.362L193.729 392.451C187.625 398.553 184.802 406.468 184.802 414.632C184.802 428.611 192.045 432.637 192.045 451.669C192.045 485.417 164.595 512 131.666 512C116.041 512 100.566 505.945 88.957 494.196C77.405 482.74 72.132 467.898 72.132 452.955C72.132 448.008 72.71 443.049 73.829 438.199C68.988 439.309 64.047 439.879 59.122 439.879C16.968 439.879 0 403.243 0 380.388C0 346.955 27.157 320.033 60.397 320.033C79.366 320.033 83.342 327.253 97.332 327.253C105.492 327.253 113.359 324.432 119.464 318.329L160.097 277.831V191.96C160.097 127.963 187.853 84.965 223.235 49.591C256.367 16.53 299.719 0 343.056 0S429.715 16.53 462.784 49.591C495.816 82.496 512 125.553 512 168.786Z "></path></svg>
